X:6065
T:Gardebyl\aa{}ten
R:G\aa{}ngl\aa{}t
O:Sweden
M:4/4
A:Dalarna
K:D
FG |\
ABAF ABAF|A2fe d2c2|BdBG BdBG|B2gf e2d2|\
c3d c2B2|A2g2 f2e2 |\
|1dc de fe fg|a6 :|2 d2fd Acec|d6 ::fg|\
a2a2 fdfa|b2a2 g2f2|\
g4 B3d|g2f2 e2d2| \
c3d c2B2|A2g2 f2e2 \
|1dcde fefg|a6 :|2d2fd Acec|d6:|


